icons/categorize.svg

<svg xmlns="http://www.w3.org/2000/svg" width="96" height="96"><path d="M20 28h56c2.1 0 4.2.8 5.7 2.3 1.5 1.5 2.3 3.6 2.3 5.7v48c0 2.1-.8 4.2-2.3 5.7-1.5 1.5-3.6 2.3-5.7 2.3H20c-2.1 0-4.2-.8-5.7-2.3-1.5-1.5-2.3-3.6-2.3-5.7V36c0-2.1.8-4.2 2.3-5.7 1.5-1.5 3.6-2.3 5.7-2.3zm0 8h56v48H20V36zm4-12c-1.1 0-2.1-.4-2.8-1.2-.8-.7-1.2-1.7-1.2-2.8 0-1.1.4-2.1 1.2-2.8.7-.8 1.7-1.2 2.8-1.2h48c1.1 0 2.1.4 2.8 1.2.8.7 1.2 1.7 1.2 2.8 0 1.1-.4 2.1-1.2 2.8-.7.8-1.7 1.2-2.8 1.2H24zm8-12c-1.1 0-2.1-.4-2.8-1.2-.8-.7-1.2-1.7-1.2-2.8 0-1.1.4-2.1 1.2-2.8.7-.8 1.7-1.2 2.8-1.2h32c1.1 0 2.1.4 2.8 1.2.8.7 1.2 1.7 1.2 2.8 0 1.1-.4 2.1-1.2 2.8-.7.8-1.7 1.2-2.8 1.2H32z" fill-rule="evenodd" fill="#454545"/></svg>

<?xml version="1.0" standalone="no"?><!-- Generator: Gravit.io --><svg xmlns="http://www.w3.org/2000/svg" xmlns:xlink="http://www.w3.org/1999/xlink" width="96" height="96"><path d=" M 20 28 L 76 28 C 78.1 28 80.2 28.8 81.7 30.3 C 83.2 31.8 84 33.9 84 36 L 84 84 C 84 86.1 83.2 88.2 81.7 89.7 C 80.2 91.2 78.1 92 76 92 L 20 92 C 17.9 92 15.8 91.2 14.3 89.7 C 12.8 88.2 12 86.1 12 84 L 12 36 C 12 33.9 12.8 31.8 14.3 30.3 C 15.8 28.8 17.9 28 20 28 Z  M 20 36 L 76 36 L 76 84 L 20 84 L 20 36 Z  M 24 24 C 22.9 24 21.9 23.6 21.2 22.8 C 20.4 22.1 20 21.1 20 20 C 20 18.9 20.4 17.9 21.2 17.2 C 21.9 16.4 22.9 16 24 16 L 72 16 C 73.1 16 74.1 16.4 74.8 17.2 C 75.6 17.9 76 18.9 76 20 C 76 21.1 75.6 22.1 74.8 22.8 C 74.1 23.6 73.1 24 72 24 L 24 24 Z  M 32 12 C 30.9 12 29.9 11.6 29.2 10.8 C 28.4 10.1 28 9.1 28 8 C 28 6.9 28.4 5.9 29.2 5.2 C 29.9 4.4 30.9 4 32 4 L 64 4 C 65.1 4 66.1 4.4 66.8 5.2 C 67.6 5.9 68 6.9 68 8 C 68 9.1 67.6 10.1 66.8 10.8 C 66.1 11.6 65.1 12 64 12 L 32 12 Z " fill-rule="evenodd" fill="#454545" stroke="none"/><mask id="_mask_c0auatfWaRZNOLeCAYPnWlVNOvhDtUH7"><path d=" M 20 28 L 76 28 C 78.1 28 80.2 28.8 81.7 30.3 C 83.2 31.8 84 33.9 84 36 L 84 84 C 84 86.1 83.2 88.2 81.7 89.7 C 80.2 91.2 78.1 92 76 92 L 20 92 C 17.9 92 15.8 91.2 14.3 89.7 C 12.8 88.2 12 86.1 12 84 L 12 36 C 12 33.9 12.8 31.8 14.3 30.3 C 15.8 28.8 17.9 28 20 28 Z  M 20 36 L 76 36 L 76 84 L 20 84 L 20 36 Z  M 24 24 C 22.9 24 21.9 23.6 21.2 22.8 C 20.4 22.1 20 21.1 20 20 C 20 18.9 20.4 17.9 21.2 17.2 C 21.9 16.4 22.9 16 24 16 L 72 16 C 73.1 16 74.1 16.4 74.8 17.2 C 75.6 17.9 76 18.9 76 20 C 76 21.1 75.6 22.1 74.8 22.8 C 74.1 23.6 73.1 24 72 24 L 24 24 Z  M 32 12 C 30.9 12 29.9 11.6 29.2 10.8 C 28.4 10.1 28 9.1 28 8 C 28 6.9 28.4 5.9 29.2 5.2 C 29.9 4.4 30.9 4 32 4 L 64 4 C 65.1 4 66.1 4.4 66.8 5.2 C 67.6 5.9 68 6.9 68 8 C 68 9.1 67.6 10.1 66.8 10.8 C 66.1 11.6 65.1 12 64 12 L 32 12 Z " fill-rule="evenodd" fill="white" stroke="none"/></mask><path d=" M 20 28 L 76 28 C 78.1 28 80.2 28.8 81.7 30.3 C 83.2 31.8 84 33.9 84 36 L 84 84 C 84 86.1 83.2 88.2 81.7 89.7 C 80.2 91.2 78.1 92 76 92 L 20 92 C 17.9 92 15.8 91.2 14.3 89.7 C 12.8 88.2 12 86.1 12 84 L 12 36 C 12 33.9 12.8 31.8 14.3 30.3 C 15.8 28.8 17.9 28 20 28 Z  M 20 36 L 76 36 L 76 84 L 20 84 L 20 36 Z  M 24 24 C 22.9 24 21.9 23.6 21.2 22.8 C 20.4 22.1 20 21.1 20 20 C 20 18.9 20.4 17.9 21.2 17.2 C 21.9 16.4 22.9 16 24 16 L 72 16 C 73.1 16 74.1 16.4 74.8 17.2 C 75.6 17.9 76 18.9 76 20 C 76 21.1 75.6 22.1 74.8 22.8 C 74.1 23.6 73.1 24 72 24 L 24 24 Z  M 32 12 C 30.9 12 29.9 11.6 29.2 10.8 C 28.4 10.1 28 9.1 28 8 C 28 6.9 28.4 5.9 29.2 5.2 C 29.9 4.4 30.9 4 32 4 L 64 4 C 65.1 4 66.1 4.4 66.8 5.2 C 67.6 5.9 68 6.9 68 8 C 68 9.1 67.6 10.1 66.8 10.8 C 66.1 11.6 65.1 12 64 12 L 32 12 Z " fill-rule="evenodd" fill="none" stroke="none" stroke-width="16" mask="url(#_mask_c0auatfWaRZNOLeCAYPnWlVNOvhDtUH7)"/></svg>
